images/logo-telegram.svg

<svg width="28" height="28" viewBox="0 0 28 28" fill="none" xmlns="http://www.w3.org/2000/svg">
<path fill-rule="evenodd" clip-rule="evenodd" d="M26 14C26 20.627 20.627 26 14 26C7.373 26 2 20.627 2 14C2 7.373 7.373 2 14 2C20.627 2 26 7.373 26 14ZM14.43 10.859C13.263 11.344 10.93 12.349 7.432 13.873C6.864 14.099 6.566 14.32 6.539 14.536C6.493 14.902 6.951 15.046 7.573 15.241C7.658 15.268 7.746 15.295 7.836 15.325C8.449 15.524 9.273 15.757 9.701 15.766C10.09 15.774 10.524 15.614 11.003 15.286C14.271 13.079 15.958 11.964 16.064 11.94C16.139 11.923 16.243 11.901 16.313 11.964C16.383 12.026 16.376 12.144 16.369 12.176C16.323 12.369 14.529 14.038 13.599 14.902C13.309 15.171 13.104 15.362 13.062 15.406C12.968 15.503 12.872 15.596 12.78 15.685C12.21 16.233 11.784 16.645 12.804 17.317C13.294 17.64 13.686 17.907 14.077 18.173C14.504 18.464 14.93 18.754 15.482 19.116C15.622 19.208 15.756 19.303 15.887 19.396C16.384 19.751 16.831 20.069 17.383 20.019C17.703 19.989 18.035 19.688 18.203 18.789C18.6 16.663 19.382 12.059 19.563 10.161C19.574 10.0034 19.5673 9.84509 19.543 9.689C19.5285 9.56293 19.4671 9.44693 19.371 9.364C19.228 9.247 19.006 9.222 18.906 9.224C18.455 9.232 17.763 9.473 14.43 10.859Z" fill="#FCFCFC"/>
<rect x="1" y="1" width="26" height="26" rx="13" stroke="#FCFCFC" stroke-opacity="0.3" stroke-width="2"/>
</svg>

<svg width="28" height="28" fill="none" xmlns="http://www.w3.org/2000/svg"><path fill-rule="evenodd" clip-rule="evenodd" d="M26 14a12 12 0 1 1-24 0 12 12 0 0 1 24 0Zm-11.57-3.14c-1.17.48-3.5 1.49-7 3.01-.57.23-.86.45-.9.67-.04.36.42.5 1.04.7l.27.08c.6.2 1.43.44 1.86.45.39 0 .82-.16 1.3-.48 3.27-2.21 4.96-3.33 5.06-3.35.08-.02.18-.04.25.02.07.07.07.18.06.22-.05.19-1.84 1.86-2.77 2.72a28.24 28.24 0 0 0-.82.79c-.57.54-1 .96.02 1.63.5.32.89.59 1.28.85a88.77 88.77 0 0 0 1.8 1.23c.5.35.95.67 1.5.62.32-.03.66-.33.82-1.23.4-2.13 1.18-6.73 1.36-8.63.01-.16 0-.31-.02-.47a.5.5 0 0 0-.17-.33.78.78 0 0 0-.46-.14c-.46.01-1.15.25-4.48 1.64Z" fill="#FCFCFC"/><rect x="1" y="1" width="26" height="26" rx="13" stroke="#FCFCFC" stroke-opacity=".3" stroke-width="2"/></svg>
